X:1
T:Ferdinand B. Barker's Malodorous March
C:T. S. Macdonald
M:C
L:1/8
K:Amix =g
%%graceslurs 0
e2 | A>ce<a f2 ef | gedB G2 cd | eA {gAGAG}A2 fA {gAGAG}A2 | gfed e2 fe |
     Acea f2 ef | gedB G2 cd | eAfA gAaf | ecBc A2 ||
cd | efed cA {gAGAG}A2 | dcBA G2 cd | efeA fgfd | gfed e2 cd |
     efed cA {gAGAG}A2 | dcBA G2 cd | ecea gdBG | Aaec A2 |]

